; generated by Slic3r 0.9.10b on 2013-11-05 at 22:10:16

; layer_height = 0.2
; perimeters = 2
; top_solid_layers = 3
; bottom_solid_layers = 3
; fill_density = 0.2
; perimeter_speed = 50
; infill_speed = 80
; travel_speed = 120
; nozzle_diameter = 0.5
; filament_diameter = 3
; extrusion_multiplier = 0.93
; perimeters extrusion width = 0.85mm
; infill extrusion width = 1.02mm
; solid infill extrusion width = 0.85mm
; top infill extrusion width = 0.85mm

G21 ; set units to millimeters
M107
M104 S230 ; set temperature
M107 ;Stop fan
G28 ; home all axes
G92 E0 ; reset extruder
M220 S100 ;default speed
M221 S100 ;defaul extrude amount
M83 ;Set E codes relative while in Absolute Coordinates (G90) mode
M109 S230 ; wait for temperature to be reached
G90 ; use absolute coordinates
M83 ; use relative distances for extrusion
G1 F2100.000 E-1.00000
G1 Z0.400 F7200.000
G1 X86.691 Y49.695
G1 F2100.000 E1.00000
G1 X87.301 Y48.905 F900.000 E0.04239
G1 X88.091 Y48.295 E0.04239
G1 X89.001 Y47.915 E0.04189
G1 X89.991 Y47.785 E0.04241
G1 X109.991 Y47.785 E0.84949
G1 X110.981 Y47.925 E0.04247
G1 X111.911 Y48.305 E0.04267
G1 X112.701 Y48.925 E0.04265
G1 X113.311 Y49.725 E0.04273
G1 X113.681 Y50.655 E0.04251
G1 X113.801 Y51.655 E0.04278
G1 X113.301 Y84.805 E1.40819
G1 X110.921 Y164.805 E3.39945
G1 X110.761 Y165.775 E0.04176
G1 X110.371 Y166.665 E0.04127
G1 X109.761 Y167.425 E0.04139
G1 X108.981 Y168.015 E0.04154
G1 X108.081 Y168.375 E0.04117
G1 X107.111 Y168.505 E0.04157
G1 X93.051 Y168.505 E0.59719
G1 X92.081 Y168.375 E0.04157
G1 X91.181 Y168.015 E0.04117
G1 X90.401 Y167.425 E0.04154
G1 X89.791 Y166.665 E0.04139
G1 X89.401 Y165.775 E0.04127
G1 X89.241 Y164.815 E0.04134
G1 X86.681 Y84.815 E3.39969
G1 X86.181 Y51.865 E1.39969
G1 X86.181 Y51.595 E0.01147
G1 X86.311 Y50.605 E0.04241
G1 X86.644 Y49.807 E0.03674
G1 F2100.000 E-1.00000
G1 X102.068 Y50.946 F7200.000
G1 F2100.000 E1.00000
G1 X102.190 Y50.649 F900.000 E0.01364
G1 X102.654 Y50.186 E0.02784
G1 X102.950 Y50.063 E0.01364
G1 X104.087 Y50.063 E0.04829
G1 X110.118 Y49.962 E0.25616
G1 X110.416 Y50.080 E0.01364
G1 X110.887 Y50.536 E0.02784
G1 X111.014 Y50.831 E0.01364
G1 X111.016 Y50.919 E0.00373
G1 X111.125 Y51.038 E0.00689
G1 X111.235 Y51.358 E0.01438
G1 X111.164 Y52.215 E0.03652
G1 X111.030 Y52.488 E0.01290
G1 X110.948 Y52.564 E0.00477
G1 X110.920 Y52.635 E0.00323
G1 X110.464 Y53.105 E0.02784
G1 X110.169 Y53.233 E0.01364
G1 X103.392 Y53.351 E0.28787
G1 X103.348 Y53.334 E0.00202
G1 X102.950 Y53.334 E0.01689
G1 X102.654 Y53.211 E0.01364
G1 X102.190 Y52.748 E0.02784
G1 X102.068 Y52.451 E0.01364
G1 X102.068 Y51.067 E0.05880
G1 F2100.000 E-1.00000
G1 X106.119 Y51.305 F7200.000
G1 F2100.000 E1.00000
G1 X106.584 Y50.825 F900.000 E0.02840
G1 X107.296 Y50.814 E0.03022
G4 P5
G1 X107.776 Y51.279 E0.02840
G1 X107.787 Y51.990 E0.03022
G1 X107.322 Y52.470 E0.02840
G1 X106.610 Y52.482 E0.03022
G1 X106.130 Y52.016 E0.02840
G1 X106.121 Y51.426 E0.02508
G1 X105.742 Y51.306 F7200.000
G4 P4
G1 X105.759 Y52.016 F900.000 E0.03014
G4 P19
G1 X105.297 Y52.499 E0.02840
G1 X104.579 Y52.513 E0.03049
G1 X104.529 Y52.464 E0.00299
G4 P31
G1 X104.476 Y52.519 E0.00322
G1 X103.757 Y52.527 E0.03053
G4 P17
G1 X103.286 Y52.067 E0.02793
G1 X103.270 Y51.362 E0.02997
G1 X103.732 Y50.878 E0.02840
G1 X104.462 Y50.870 E0.03104
G1 X104.501 Y50.909 E0.00234
G4 P32
G1 X104.549 Y50.859 E0.00292
G1 X105.263 Y50.845 E0.03032
G4 P17
G1 X105.655 Y51.222 E0.02310
G1 F2100.000 E-1.00000
G1 X97.711 Y51.275 F7200.000
G1 F2100.000 E1.00000
G1 X97.711 Y52.134 F900.000 E0.03648
G1 X97.588 Y52.431 E0.01364
G1 X97.124 Y52.894 E0.02784
G1 X96.828 Y53.017 E0.01364
G1 X96.642 Y53.017 E0.00788
G4 P29
G1 X96.574 Y53.089 E0.00422
G1 X96.281 Y53.220 E0.01364
G1 X93.833 Y53.294 E0.10402
G1 X91.831 Y53.325 E0.08505
G1 X91.701 Y53.372 E0.00584
G1 X91.001 Y53.338 E0.02976
G4 P19
G1 X90.300 Y53.349 E0.02978
G1 X89.603 Y53.407 E0.02973
G4 P5
G1 X89.297 Y53.310 E0.01364
G1 X88.797 Y52.886 E0.02784
G1 X88.649 Y52.601 E0.01364
G1 X88.524 Y51.101 E0.06394
G1 X88.622 Y50.795 E0.01364
G1 X89.046 Y50.295 E0.02784
G1 X89.331 Y50.147 E0.01364
G1 X89.632 Y50.122 E0.01284
G1 X89.936 Y50.012 E0.01372
G1 X90.580 Y50.043 E0.02741
G4 P20
G1 X91.224 Y49.990 E0.02741
G4 P20
G1 X91.443 Y50.060 E0.00979
G4 P28
G1 X96.193 Y49.950 E0.20180
G1 X96.493 Y50.065 E0.01364
G1 X96.846 Y50.400 E0.02070
G1 X97.124 Y50.515 E0.01278
G1 X97.588 Y50.979 E0.02784
G1 X97.664 Y51.163 E0.00850
G1 F2100.000 E-1.00000
G1 X93.877 Y51.302 F7200.000
G1 F2100.000 E1.00000
G4 P1
G1 X93.889 Y52.010 F900.000 E0.03010
G4 P19
G1 X93.430 Y52.489 E0.02817
G1 X92.715 Y52.504 E0.03037
G1 X92.236 Y52.046 E0.02817
G1 X92.217 Y51.337 E0.03010
G1 X92.677 Y50.852 E0.02840
G1 X93.397 Y50.837 E0.03062
G1 X93.791 Y51.218 E0.02326
G1 X91.872 Y51.387 F7200.000
G1 X91.839 Y52.081 F900.000 E0.02953
G1 X91.380 Y52.525 E0.02713
G1 X90.733 Y52.535 E0.02747
G1 X90.701 Y52.506 E0.00187
G1 X90.214 Y52.493 E0.02067
G1 X89.765 Y51.998 E0.02840
G1 X89.797 Y51.320 E0.02881
G1 X90.219 Y50.883 E0.02580
G1 X90.884 Y50.828 E0.02834
G1 X90.928 Y50.868 E0.00254
G1 X91.423 Y50.892 E0.02102
G1 X91.791 Y51.297 E0.02326
G1 X90.172 Y53.494 F7200.000
G4 P10
G1 X96.828 Y53.494 F900.000 E0.28268
G1 X97.124 Y53.617 E0.01364
G1 X97.588 Y54.080 E0.02784
G1 X97.711 Y54.377 E0.01364
G1 X97.711 Y78.494 E1.02436
G1 X102.289 Y78.494 E0.19448
G1 X102.289 Y54.377 E1.02436
G1 X102.412 Y54.080 E0.01364
G1 X102.876 Y53.617 E0.02784
G1 X103.172 Y53.494 E0.01364
G1 X109.828 Y53.494 E0.28268
G1 X110.124 Y53.617 E0.01364
G1 X110.588 Y54.080 E0.02784
G1 X110.711 Y54.377 E0.01364
G1 X110.711 Y85.032 E1.30207
G1 X110.588 Y85.329 E0.01364
G1 X110.124 Y85.793 E0.02784
G1 X109.828 Y85.915 E0.01364
G1 X108.322 Y85.915 E0.06394
G1 X108.322 Y165.032 E3.36045
G1 X108.199 Y165.329 E0.01364
G1 X107.736 Y165.793 E0.02784
G1 X107.439 Y165.915 E0.01364
G1 X92.726 Y165.915 E0.62494
G1 X92.429 Y165.793 E0.01364
G1 X91.966 Y165.329 E0.02784
G1 X91.843 Y165.032 E0.01364
G1 X91.843 Y85.915 E3.36045
G1 X90.172 Y85.915 E0.07096
G1 X89.876 Y85.793 E0.01364
G1 X89.412 Y85.329 E0.02784
G1 X89.289 Y85.032 E0.01364
G1 X89.289 Y54.377 E1.30207
G1 X89.412 Y54.080 E0.01364
G1 X89.876 Y53.617 E0.02784
G1 X90.060 Y53.541 E0.00850
G1 X90.569 Y54.301 F7200.000
G1 X96.431 Y54.301 F900.000 E0.24896
G1 X96.904 Y54.774 E0.02840
G1 X96.904 Y79.301 E1.04178
G1 X103.096 Y79.301 E0.26304
G1 X103.096 Y54.774 E1.04178
G1 X103.569 Y54.301 E0.02840
G1 X109.431 Y54.301 E0.24896
G1 X109.904 Y54.774 E0.02840
G1 X109.904 Y84.636 E1.26835
G1 X109.431 Y85.108 E0.02840
G1 X107.515 Y85.108 E0.08137
G1 X107.515 Y164.636 E3.37787
G1 X107.042 Y165.108 E0.02840
G1 X93.123 Y165.108 E0.59122
G1 X92.650 Y164.636 E0.02840
G1 X92.650 Y85.108 E3.37787
G1 X90.569 Y85.108 E0.08838
G1 X90.096 Y84.636 E0.02840
G1 X90.096 Y54.774 E1.26835
G1 X90.484 Y54.387 E0.02326
G1 X90.904 Y55.108 F7200.000
G1 X96.096 Y55.108 F720.000 E0.22057
G1 X96.096 Y80.108 E1.06186
G1 X103.904 Y80.108 E0.33160
G1 X103.904 Y55.108 E1.06186
G1 X109.096 Y55.108 E0.22057
G1 X109.096 Y84.301 E1.23995
G1 X106.708 Y84.301 E0.10145
G1 X106.708 Y164.301 E3.39795
G1 X93.457 Y164.301 E0.56283
G1 X93.457 Y84.301 E3.39795
G1 X90.904 Y84.301 E0.10846
G1 X90.904 Y55.229 E1.23481
G1 X91.602 Y55.512 F7200.000
G1 X91.711 Y55.915
G1 X95.289 Y55.915 F900.000 E0.15201
G1 X95.289 Y80.915 E1.06186
G1 X104.711 Y80.915 E0.40016
G1 X104.711 Y55.915 E1.06186
G1 X108.289 Y55.915 E0.15201
G1 X108.289 Y83.494 E1.17139
G1 X105.901 Y83.494 E0.10145
G1 X105.901 Y163.494 E3.39795
G1 X94.264 Y163.494 E0.49427
G1 X94.264 Y83.494 E3.39795
G1 X91.711 Y83.494 E0.10846
G1 X91.711 Y56.036 E1.16625
G1 X93.055 Y51.671 F7200.000
G1 X95.484 Y51.605 F720.000 E0.10324
G1 X93.055 Y51.671 F7200.000
G1 X91.028 Y51.702 F720.000 E0.08610
G1 X91.028 Y51.702 F7200.000
G1 X90.609 Y51.682 F720.000 E0.01779
G1 X90.609 Y51.682 F7200.000
G4 P22
G1 X90.217 Y51.715 F720.000 E0.01673
G1 F2100.000 E-1.00000
G4 P23
G1 X103.703 Y51.698 F7200.000
G1 F2100.000 E1.00000
G1 X104.107 Y51.698 F720.000 E0.01714
G1 X104.107 Y51.698 F7200.000
G1 X104.922 Y51.679 F720.000 E0.03464
G1 X104.922 Y51.679 F7200.000
G1 X106.953 Y51.648 F720.000 E0.08629
G1 X106.953 Y51.648 F7200.000
G1 X109.391 Y51.609 F720.000 E0.10354
G1 X107.704 Y57.153 F7200.000
G1 X107.052 Y56.500 F1080.000 E0.03935
G1 X105.906 Y56.500 E0.04882
G1 X107.704 Y58.299 E0.10839
G1 X105.296 Y57.035 F7200.000
G4 P10
G1 X107.704 Y59.444 F1080.000 E0.14519
G1 X107.704 Y60.589 E0.04882
G1 X105.296 Y58.181 E0.14519
G1 X105.296 Y59.326 E0.04882
G1 X107.704 Y61.735 E0.14519
G1 X107.704 Y62.880 E0.04882
G1 X105.296 Y60.471 E0.14519
G1 X105.296 Y61.617 E0.04882
G1 X107.704 Y64.025 E0.14519
G1 X107.704 Y65.171 E0.04882
G1 X105.296 Y62.762 E0.14519
G1 X105.296 Y63.907 E0.04882
G1 X107.704 Y66.316 E0.14519
G1 X107.704 Y67.462 E0.04882
G1 X105.296 Y65.053 E0.14519
G1 X105.296 Y66.198 E0.04882
G1 X107.704 Y68.607 E0.14519
G1 X107.704 Y69.752 E0.04882
G1 X105.296 Y67.344 E0.14519
G1 X105.296 Y68.489 E0.04882
G1 X107.704 Y70.898 E0.14519
G1 X107.704 Y72.043 E0.04882
G1 X105.296 Y69.634 E0.14519
G1 X105.296 Y70.780 E0.04882
G1 X107.704 Y73.188 E0.14519
G1 X107.704 Y74.334 E0.04882
G1 X105.296 Y71.925 E0.14519
G1 X105.296 Y73.070 E0.04882
G1 X107.704 Y75.479 E0.14519
G1 X107.704 Y76.624 E0.04882
G1 X105.296 Y74.216 E0.14519
G1 X105.296 Y75.361 E0.04882
G1 X107.704 Y77.770 E0.14519
G1 X107.704 Y78.915 E0.04882
G1 X105.296 Y76.506 E0.14519
G1 X105.296 Y77.652 E0.04882
G1 X107.704 Y80.060 E0.14519
G1 X107.704 Y81.206 E0.04882
G1 X105.296 Y78.797 E0.14519
G1 X105.296 Y79.942 E0.04882
G1 X107.704 Y82.351 E0.14519
G1 X107.117 Y82.909 E0.03453
G1 X105.296 Y81.088 E0.10978
G1 X104.563 Y81.500 E0.03584
G1 X105.972 Y82.909 E0.08491
G4 P0
G1 X105.316 Y83.399 E0.03488
G1 X103.418 Y81.500 E0.11443
G1 X102.272 Y81.500 E0.04882
G1 X105.316 Y84.544 E0.18347
G1 X105.316 Y85.690 E0.04882
G1 X101.127 Y81.500 E0.25251
G1 X99.981 Y81.500 E0.04882
G1 X105.316 Y86.835 E0.32155
G1 X105.316 Y87.980 E0.04882
G1 X98.836 Y81.500 E0.39059
G1 X97.691 Y81.500 E0.04882
G1 X105.316 Y89.126 E0.45963
G1 X105.316 Y90.271 E0.04882
G1 X96.545 Y81.500 E0.52867
G1 X95.400 Y81.500 E0.04882
G1 X105.316 Y91.416 E0.59771
G1 X94.704 Y80.805 F7200.000
G1 X92.296 Y78.396 F1080.000 E0.14519
G1 X92.296 Y77.251 E0.04882
G1 X94.704 Y79.659 E0.14519
G1 X94.704 Y78.514 E0.04882
G1 X92.296 Y76.105 E0.14519
G1 X92.296 Y74.960 E0.04882
G1 X94.704 Y77.369 E0.14519
G1 X94.704 Y76.223 E0.04882
G1 X92.296 Y73.815 E0.14519
G1 X92.296 Y72.669 E0.04882
G1 X94.704 Y75.078 E0.14519
G1 X94.704 Y73.933 E0.04882
G1 X92.296 Y71.524 E0.14519
G1 X92.296 Y70.379 E0.04882
G1 X94.704 Y72.787 E0.14519
G1 X94.704 Y71.642 E0.04882
G1 X92.296 Y69.233 E0.14519
G1 X92.296 Y68.088 E0.04882
G1 X94.704 Y70.497 E0.14519
G1 X94.704 Y69.351 E0.04882
G1 X92.296 Y66.942 E0.14519
G1 X92.296 Y65.797 E0.04882
G1 X94.704 Y68.206 E0.14519
G1 X94.704 Y67.060 E0.04882
G1 X92.296 Y64.652 E0.14519
G1 X92.296 Y63.506 E0.04882
G1 X94.704 Y65.915 E0.14519
G1 X94.704 Y64.770 E0.04882
G1 X92.296 Y62.361 E0.14519
G1 X92.296 Y61.216 E0.04882
G1 X94.704 Y63.624 E0.14519
G1 X94.704 Y62.479 E0.04882
G1 X92.296 Y60.070 E0.14519
G1 X92.296 Y58.925 E0.04882
G1 X94.704 Y61.334 E0.14519
G1 X94.704 Y60.188 E0.04882
G1 X92.296 Y57.780 E0.14519
G1 X92.296 Y56.634 E0.04882
G1 X94.704 Y59.043 E0.14519
G1 X94.704 Y57.898 E0.04882
G1 X93.307 Y56.500 E0.08422
G4 P0
G1 X94.453 Y56.500 E0.04882
G1 X94.704 Y56.752 E0.01518
G4 P8
G1 X92.296 Y81.832 F7200.000
G1 X93.373 Y82.909 F1080.000 E0.06492
G1 X94.518 Y82.909 E0.04882
G1 X92.296 Y80.687 E0.13396
G1 X92.296 Y79.541 E0.04882
G1 X105.316 Y92.562 E0.78483
G1 X105.316 Y93.707 E0.04882
G1 X94.849 Y83.240 E0.63091
G1 X94.849 Y84.386 E0.04882
G1 X105.316 Y94.852 E0.63091
G1 X105.316 Y95.998 E0.04882
G1 X94.849 Y85.531 E0.63091
G1 X94.849 Y86.676 E0.04882
G1 X105.316 Y97.143 E0.63091
G1 X105.316 Y98.289 E0.04882
G1 X94.849 Y87.822 E0.63091
G1 X94.849 Y88.967 E0.04882
G1 X105.316 Y99.434 E0.63091
G1 X105.316 Y100.579 E0.04882
G1 X94.849 Y90.113 E0.63091
G1 X94.849 Y91.258 E0.04882
G1 X105.316 Y101.725 E0.63091
G1 X105.316 Y102.870 E0.04882
G1 X94.849 Y92.403 E0.63091
G1 X94.849 Y93.549 E0.04882
G1 X105.316 Y104.015 E0.63091
G1 X105.316 Y105.161 E0.04882
G1 X94.849 Y94.694 E0.63091
G1 X94.849 Y95.839 E0.04882
G1 X105.316 Y106.306 E0.63091
G1 X105.316 Y107.451 E0.04882
G1 X94.849 Y96.985 E0.63091
G1 X94.849 Y98.130 E0.04882
G1 X105.316 Y108.597 E0.63091
G1 X105.316 Y109.742 E0.04882
G1 X94.849 Y99.275 E0.63091
G1 X94.849 Y100.421 E0.04882
G1 X105.316 Y110.888 E0.63091
G1 X105.316 Y112.033 E0.04882
G1 X94.849 Y101.566 E0.63091
G1 X94.849 Y102.711 E0.04882
G1 X105.316 Y113.178 E0.63091
G1 X105.316 Y114.324 E0.04882
G1 X94.849 Y103.857 E0.63091
G1 X94.849 Y105.002 E0.04882
G1 X105.316 Y115.469 E0.63091
G1 X105.316 Y116.614 E0.04882
G1 X94.849 Y106.148 E0.63091
G1 X94.849 Y107.293 E0.04882
G1 X105.316 Y117.760 E0.63091
G1 X105.316 Y118.905 E0.04882
G1 X94.849 Y108.438 E0.63091
G1 X94.849 Y109.584 E0.04882
G1 X105.316 Y120.050 E0.63091
G1 X105.316 Y121.196 E0.04882
G1 X94.849 Y110.729 E0.63091
G1 X94.849 Y111.874 E0.04882
G1 X105.316 Y122.341 E0.63091
G1 X105.316 Y123.486 E0.04882
G1 X94.849 Y113.020 E0.63091
G1 X94.849 Y114.165 E0.04882
G1 X105.316 Y124.632 E0.63091
G1 X105.316 Y125.777 E0.04882
G1 X94.849 Y115.310 E0.63091
G1 X94.849 Y116.456 E0.04882
G1 X105.316 Y126.923 E0.63091
G1 X105.316 Y128.068 E0.04882
G1 X94.849 Y117.601 E0.63091
G1 X94.849 Y118.747 E0.04882
G1 X105.316 Y129.213 E0.63091
G1 X105.316 Y130.359 E0.04882
G1 X94.849 Y119.892 E0.63091
G1 X94.849 Y121.037 E0.04882
G1 X105.316 Y131.504 E0.63091
G1 X105.316 Y132.649 E0.04882
G1 X94.849 Y122.183 E0.63091
G1 X94.849 Y123.328 E0.04882
G1 X105.316 Y133.795 E0.63091
G1 X105.316 Y134.940 E0.04882
G1 X94.849 Y124.473 E0.63091
G1 X94.849 Y125.619 E0.04882
G1 X105.316 Y136.085 E0.63091
G1 X105.316 Y137.231 E0.04882
G1 X94.849 Y126.764 E0.63091
G1 X94.849 Y127.909 E0.04882
G1 X105.316 Y138.376 E0.63091
G1 X105.316 Y139.522 E0.04882
G1 X94.849 Y129.055 E0.63091
G1 X94.849 Y130.200 E0.04882
G1 X105.316 Y140.667 E0.63091
G1 X105.316 Y141.812 E0.04882
G1 X94.849 Y131.345 E0.63091
G1 X94.849 Y132.491 E0.04882
G1 X105.316 Y142.958 E0.63091
G1 X105.316 Y144.103 E0.04882
G1 X94.849 Y133.636 E0.63091
G1 X94.849 Y134.782 E0.04882
G1 X105.316 Y145.248 E0.63091
G1 X105.316 Y146.394 E0.04882
G1 X94.849 Y135.927 E0.63091
G1 X94.849 Y137.072 E0.04882
G1 X105.316 Y147.539 E0.63091
G1 X105.316 Y148.684 E0.04882
G1 X94.849 Y138.218 E0.63091
G1 X94.849 Y139.363 E0.04882
G1 X105.316 Y149.830 E0.63091
G1 X105.316 Y150.975 E0.04882
G1 X94.849 Y140.508 E0.63091
G1 X94.849 Y141.654 E0.04882
G1 X105.316 Y152.120 E0.63091
G1 X105.316 Y153.266 E0.04882
G1 X94.849 Y142.799 E0.63091
G1 X94.849 Y143.944 E0.04882
G1 X105.316 Y154.411 E0.63091
G1 X105.316 Y155.557 E0.04882
G1 X94.849 Y145.090 E0.63091
G1 X94.849 Y146.235 E0.04882
G1 X105.316 Y156.702 E0.63091
G1 X105.316 Y157.847 E0.04882
G1 X94.849 Y147.381 E0.63091
G1 X94.849 Y148.526 E0.04882
G1 X105.316 Y158.993 E0.63091
G1 X105.316 Y160.138 E0.04882
G1 X94.849 Y149.671 E0.63091
G1 X94.849 Y150.817 E0.04882
G1 X105.316 Y161.283 E0.63091
G1 X105.316 Y162.429 E0.04882
G1 X94.849 Y151.962 E0.63091
G1 X94.849 Y153.107 E0.04882
G1 X104.651 Y162.909 E0.59083
G1 X103.506 Y162.909 E0.04882
G1 X94.849 Y154.253 E0.52179
G1 X94.849 Y155.398 E0.04882
G1 X102.360 Y162.909 E0.45275
G1 X101.215 Y162.909 E0.04882
G1 X94.849 Y156.543 E0.38371
G1 X94.849 Y157.689 E0.04882
G1 X100.070 Y162.909 E0.31467
G1 X98.924 Y162.909 E0.04882
G1 X94.849 Y158.834 E0.24563
G1 X94.849 Y159.980 E0.04882
G1 X97.779 Y162.909 E0.17659
G1 X96.633 Y162.909 E0.04882
G1 X94.849 Y161.125 E0.10755
G1 X94.849 Y162.270 E0.04882
G1 X95.488 Y162.909 E0.03851
M106 S127
M104 S225 ; set temperature
G1 F2100.000 E-1.00000
G1 Z0.600 F7200.000
G4 P18
G1 X93.959 Y163.494
G1 F2100.000 E1.00000
G1 X93.959 Y83.494 F1963.488 E1.69897
G1 X91.711 Y83.494 E0.04775
G1 X91.711 Y53.452 E0.63802
G1 X91.211 Y53.451 E0.01062
G1 X91.211 Y49.960 E0.07415
G1 X95.289 Y49.960 E0.08662
G1 X95.289 Y80.915 E0.65741
